Costumes/pencil-a.svg

<?xml version="1.0" encoding="UTF-8" standalone="no"?>
<svg
   version="1.1"
   width="101.33665"
   height="120.1768"
   id="svg16"
   sodipodi:docname="pencil-a.svg"
   xmlns:inkscape="http://www.inkscape.org/namespaces/inkscape"
   xmlns:sodipodi="http://sodipodi.sourceforge.net/DTD/sodipodi-0.dtd"
   xmlns="http://www.w3.org/2000/svg"
   xmlns:svg="http://www.w3.org/2000/svg">
  <defs
     id="defs20" />
  <sodipodi:namedview
     id="namedview18"
     pagecolor="#ffffff"
     bordercolor="#000000"
     borderopacity="0.25"
     inkscape:showpageshadow="2"
     inkscape:pageopacity="0.0"
     inkscape:pagecheckerboard="0"
     inkscape:deskcolor="#d1d1d1" />
  <!-- Exported by Scratch - http://scratch.mit.edu/ -->
  <g
     id="ID0.9544714530929923"
     transform="translate(-0.75,-0.62113347)">
    <path
       id="ID0.8586977859959006"
       fill="#ff9400"
       stroke="none"
       stroke-linecap="round"
       d="m 201.25,104 c 3.471,-0.006 7.29,1.446 10,3.75 2.306,1.962 4.521,5.173 4.25,8.25 -0.25,2.792 -3.639,4.688 -5.75,6.75 -1.683,1.657 -3.265,5.45 -5.75,5 -3.169,-0.602 -4.417,-4.954 -7,-7 -1.891,-1.5 -6.499,-0.905 -6.5,-3.25 0.124,-3.923 4.4,-6.56 6.75,-9.5 1.176,-1.471 2.11,-3.997 4,-4 z"
       transform="translate(-115,-102)" />
    <path
       id="ID0.9701001369394362"
       fill="#b5b5b5"
       stroke="none"
       stroke-linecap="round"
       d="m 193.75,114.25 c 3.38,-0.42 6.917,1.42 9.619,3.498 2.144,1.648 4.985,4.497 4.381,7.252 -0.99,4.494 -5.069,8.241 -8.75,11.25 -0.905,0.746 -1.74,-1.381 -2.75,-2 -1.365,-1.13 -2.737,-2.283 -4.369,-3.248 -2.66,-1.575 -6.754,-1.732 -8.131,-4.502 -1.055,-2.133 1.06,-4.606 2.5,-6.25 2.009,-2.581 4.423,-5.621 7.5,-6 z"
       transform="translate(-115,-102)" />
    <path
       id="ID0.8783496841788292"
       fill="#ffffcc"
       stroke="none"
       stroke-linecap="round"
       d="m 124.5,197 c 3.218,-2.245 7.914,-6.661 11,-4.25 4.407,3.367 5.769,10.868 4.25,16.25 -1.084,3.842 -6.974,4.136 -10.5,6.25 -2.22,1.134 -4.499,2.165 -6.75,3.5 -1.511,0.893 -2.745,2.054 -4.5,2.75 -0.495,0.195 -1.822,1.097 -1.5,-0.5 1.292,-6.369 3.429,-12.605 5.5,-18.75 0.595,-1.768 0.923,-4.122 2.5,-5.25 z"
       transform="translate(-115,-102)" />
    <path
       id="ID0.3507009046152234"
       fill="#ffff00"
       stroke="#000000"
       stroke-width="2"
       stroke-linecap="round"
       d="m 124.5,196.5 c -1.342,2.061 2.144,0.776 3.25,1.25 0.773,0.324 1.971,0.054 2.5,0.75 0.551,0.822 0.099,1.758 0,2.5 -0.064,1.595 -1.192,3.36 -0.5,4.5 0.557,0.908 2.168,0.337 3.25,0.25 1.026,-0.082 1.985,-0.926 3,-0.75 1.069,0.186 1.902,1.072 2.75,1.75 0.827,0.662 1.2,2.285 2.25,2.25 1.079,-0.049 0.933,-0.98 2.25,-2.75 5.465,-6.57 10.771,-13.263 16.25,-20 13.028,-16.019 26.4,-31.9 39.25,-48 3.2,-4.15 2.4,-2.7 2.25,-4.25 -0.3,-2.55 -1.85,-4.95 -3.5,-6.75 -1.7,-1.9 -3.9,-3.3 -6.25,-4 -2.1,-0.65 -4.35,-0.75 -6.25,0 -1.4,0.5 0.24,-0.652 -3,3.25 -12.912,15.614 -25.742,31.203 -38.5,46.75 -6.389,7.763 -13.653,14.957 -19,23.25 z"
       transform="translate(-115,-102)" />
    <path
       id="ID0.26528497599065304"
       fill="none"
       stroke="#000000"
       stroke-width="2"
       stroke-linecap="round"
       d="M 185.75,137.25 131.5,205"
       transform="translate(-115,-102)" />
    <path
       id="ID0.8384811817668378"
       fill="none"
       stroke="#000000"
       stroke-width="2"
       stroke-linecap="round"
       d="m 123.5,198 c 0,0 -1.046,2.987 -1.5,4.5 -0.296,0.986 -0.464,2.011 -0.75,3 -0.63,2.175 -1.318,4.34 -2,6.5 -0.317,1.004 -0.697,1.991 -1,3 -0.447,1.49 -0.857,2.995 -1.25,4.5 -0.107,0.411 -0.25,1.25 -0.25,1.25"
       transform="translate(-115,-102)" />
    <path
       id="ID0.8209637436084449"
       fill="none"
       stroke="#000000"
       stroke-width="2"
       stroke-linecap="round"
       d="m 141.25,209 c 0,0 -1.494,0.847 -2.25,1.25 -1.741,0.929 -3.467,1.903 -5.25,2.75 -1.55,0.736 -3.215,1.232 -4.75,2 -2.134,1.067 -4.171,2.331 -6.25,3.5 -0.585,0.329 -1.185,0.637 -1.75,1 -0.602,0.387 -1.148,0.863 -1.75,1.25 -0.565,0.363 -1.137,0.727 -1.75,1 -0.153,0.068 -0.5,0 -0.5,0"
       transform="translate(-115,-102)" />
    <path
       id="ID0.03616796713322401"
       fill="none"
       stroke="#000000"
       stroke-width="2"
       stroke-linecap="round"
       d="m 116.75,221 0.3,0.3"
       transform="translate(-115,-102)" />
    <path
       id="ID0.21085595898330212"
       fill="none"
       stroke="#000000"
       stroke-width="2"
       stroke-linecap="round"
       d="m 185,122.5 c 0,0 3.879,-5.203 6,-7.75 0.463,-0.568 0.631,-0.99 1.25,-1 2.023,-0.037 4.139,0.118 6,1 2.58,1.227 4.965,3.145 6.75,5.5 1.478,1.68 1.816,4.12 2.75,6.25 0.234,0.532 0.466,-0.068 0.25,0.25 -0.815,1.234 -1.803,2.282 -2.75,3.5 -1.384,1.696 -4.25,5.25 -4.25,5.25"
       transform="translate(-115,-102)" />
    <path
       id="path11"
       fill="none"
       stroke="#000000"
       stroke-width="2"
       stroke-linecap="round"
       d="m 185.4,123.4 c 0,0 3.92,-5.462 6.15,-7.85 0.503,-0.623 0.892,-1.353 1.65,-1.4 1.691,-0.16 3.468,-0.127 5.05,0.6 2.559,1.177 5.085,2.688 7,4.75 1.403,1.525 2.06,3.565 2.45,5.55 0.231,0.659 -0.361,1.318 -0.7,1.9 -0.732,1.257 -1.502,2.493 -2.4,3.55 -1.556,1.964 -4.95,5.5 -4.95,5.5"
       transform="matrix(1.0526316,0,0,1.0526316,-117.65,-118.4)" />
    <path
       id="ID0.41866302071139216"
       fill="none"
       stroke="#000000"
       stroke-width="2"
       stroke-linecap="round"
       d="m 204,129.25 c 0,0 -0.636,-1.681 -1,-2.5 -0.302,-0.68 -0.56,-1.4 -1,-2 -0.487,-0.665 -1.146,-1.189 -1.75,-1.75 -0.562,-0.522 -1.146,-1.026 -1.75,-1.5 -0.563,-0.442 -1.118,-0.913 -1.75,-1.25 -0.628,-0.335 -1.334,-0.5 -2,-0.75 -0.167,-0.062 0,0 0,0"
       transform="translate(-115,-102)" />
    <path
       id="ID0.1270556254312396"
       fill="#000000"
       stroke="none"
       stroke-linecap="round"
       d="m 121.75,213 c 0.643,0.055 1.285,0.346 1.767,0.769 0.533,0.469 0.886,1.099 1.183,1.731 0.198,0.423 0.36,0.99 0.15,1.5 -0.066,0.282 -0.335,0.202 -0.85,0.5 -2.065,1.195 -4.963,4.166 -6.25,3.5 -1.18,-0.666 -0.028,-3.855 0.25,-5.75 0.113,-0.698 0.129,-1.62 0.75,-2 0.849,-0.502 2.039,-0.337 3,-0.25 z"
       transform="translate(-115,-102)" />
  </g>
</svg>

<svg version="1.1" width="103" height="121" xmlns="http://www.w3.org/2000/svg" xmlns:xlink="http://www.w3.org/1999/xlink">
  <!-- Exported by Scratch - http://scratch.mit.edu/ -->
  <g id="ID0.9544714530929923" transform="matrix(1, 0, 0, 1, 0, -0.5)">
    <path id="ID0.8586977859959006" fill="#FF9400" stroke="none" stroke-linecap="round" d="M 201.250 104 C 204.721 103.994 208.540 105.446 211.250 107.750 C 213.556 109.712 215.771 112.923 215.500 116 C 215.250 118.792 211.861 120.688 209.750 122.750 C 208.067 124.407 206.485 128.200 204 127.750 C 200.831 127.148 199.583 122.796 197 120.750 C 195.109 119.250 190.501 119.845 190.500 117.500 C 190.624 113.577 194.900 110.940 197.250 108 C 198.426 106.529 199.360 104.003 201.250 104 Z " transform="matrix(1, 0, 0, 1, -115, -102)"/>
    <path id="ID0.9701001369394362" fill="#B5B5B5" stroke="none" stroke-linecap="round" d="M 193.750 114.250 C 197.130 113.830 200.667 115.670 203.369 117.748 C 205.513 119.396 208.354 122.245 207.750 125 C 206.760 129.494 202.681 133.241 199 136.250 C 198.095 136.996 197.260 134.869 196.250 134.250 C 194.885 133.120 193.513 131.967 191.881 131.002 C 189.221 129.427 185.127 129.270 183.750 126.500 C 182.695 124.367 184.810 121.894 186.250 120.250 C 188.259 117.669 190.673 114.629 193.750 114.250 Z " transform="matrix(1, 0, 0, 1, -115, -102)"/>
    <path id="ID0.8783496841788292" fill="#FFFFCC" stroke="none" stroke-linecap="round" d="M 124.500 197 C 127.718 194.755 132.414 190.339 135.500 192.750 C 139.907 196.117 141.269 203.618 139.750 209 C 138.666 212.842 132.776 213.136 129.250 215.250 C 127.030 216.384 124.751 217.415 122.500 218.750 C 120.989 219.643 119.755 220.804 118 221.500 C 117.505 221.695 116.178 222.597 116.500 221 C 117.792 214.631 119.929 208.395 122 202.250 C 122.595 200.482 122.923 198.128 124.500 197 Z " transform="matrix(1, 0, 0, 1, -115, -102)"/>
    <path id="ID0.3507009046152234" fill="#FFFF00" stroke="#000000" stroke-width="2" stroke-linecap="round" d="M 124.500 196.500 C 123.158 198.561 126.644 197.276 127.750 197.750 C 128.523 198.074 129.721 197.804 130.250 198.500 C 130.801 199.322 130.349 200.258 130.250 201 C 130.186 202.595 129.058 204.360 129.750 205.500 C 130.307 206.408 131.918 205.837 133 205.750 C 134.026 205.668 134.985 204.824 136 205 C 137.069 205.186 137.902 206.072 138.750 206.750 C 139.577 207.412 139.950 209.035 141 209 C 142.079 208.951 141.933 208.020 143.250 206.250 C 148.715 199.680 154.021 192.987 159.500 186.250 C 172.528 170.231 185.900 154.350 198.750 138.250 C 201.950 134.100 201.150 135.550 201 134 C 200.700 131.450 199.150 129.050 197.500 127.250 C 195.800 125.350 193.600 123.950 191.250 123.250 C 189.150 122.600 186.900 122.500 185 123.250 C 183.600 123.750 185.240 122.598 182 126.500 C 169.088 142.114 156.258 157.703 143.500 173.250 C 137.111 181.013 129.847 188.207 124.500 196.500 Z " transform="matrix(1, 0, 0, 1, -115, -102)"/>
    <path id="ID0.26528497599065304" fill="none" stroke="#000000" stroke-width="2" stroke-linecap="round" d="M 185.750 137.250 L 131.500 205 " transform="matrix(1, 0, 0, 1, -115, -102)"/>
    <path id="ID0.8384811817668378" fill="none" stroke="#000000" stroke-width="2" stroke-linecap="round" d="M 123.500 198 C 123.500 198 122.454 200.987 122 202.500 C 121.704 203.486 121.536 204.511 121.250 205.500 C 120.620 207.675 119.932 209.840 119.250 212 C 118.933 213.004 118.553 213.991 118.250 215 C 117.803 216.490 117.393 217.995 117 219.500 C 116.893 219.911 116.750 220.750 116.750 220.750 " transform="matrix(1, 0, 0, 1, -115, -102)"/>
    <path id="ID0.8209637436084449" fill="none" stroke="#000000" stroke-width="2" stroke-linecap="round" d="M 141.250 209 C 141.250 209 139.756 209.847 139 210.250 C 137.259 211.179 135.533 212.153 133.750 213 C 132.200 213.736 130.535 214.232 129 215 C 126.866 216.067 124.829 217.331 122.750 218.500 C 122.165 218.829 121.565 219.137 121 219.500 C 120.398 219.887 119.852 220.363 119.250 220.750 C 118.685 221.113 118.113 221.477 117.500 221.750 C 117.347 221.818 117 221.750 117 221.750 " transform="matrix(1, 0, 0, 1, -115, -102)"/>
    <path id="ID0.03616796713322401" fill="none" stroke="#000000" stroke-width="2" stroke-linecap="round" d="M 116.750 221 L 117.050 221.300 " transform="matrix(1, 0, 0, 1, -115, -102)"/>
    <path id="ID0.21085595898330212" fill="none" stroke="#000000" stroke-width="2" stroke-linecap="round" d="M 185 122.500 C 185 122.500 188.879 117.297 191 114.750 C 191.463 114.182 191.631 113.760 192.250 113.750 C 194.273 113.713 196.389 113.868 198.250 114.750 C 200.830 115.977 203.215 117.895 205 120.250 C 206.478 121.930 206.816 124.370 207.750 126.500 C 207.984 127.032 208.216 126.432 208 126.750 C 207.185 127.984 206.197 129.032 205.250 130.250 C 203.866 131.946 201 135.500 201 135.500 " transform="matrix(1, 0, 0, 1, -115, -102)"/>
    <path id="ID0.21085595898330212" fill="none" stroke="#000000" stroke-width="2" stroke-linecap="round" d="M 185.400 123.400 C 185.400 123.400 189.320 117.938 191.550 115.550 C 192.053 114.927 192.442 114.197 193.200 114.150 C 194.891 113.990 196.668 114.023 198.250 114.750 C 200.809 115.927 203.335 117.438 205.250 119.500 C 206.653 121.025 207.310 123.065 207.700 125.050 C 207.931 125.709 207.339 126.368 207 126.950 C 206.268 128.207 205.498 129.443 204.600 130.500 C 203.044 132.464 199.650 136 199.650 136 " transform="matrix(1.0526316165924072, 0, 0, 1.0526316165924072, -117.65, -118.4)"/>
    <path id="ID0.41866302071139216" fill="none" stroke="#000000" stroke-width="2" stroke-linecap="round" d="M 204 129.250 C 204 129.250 203.364 127.569 203 126.750 C 202.698 126.070 202.440 125.350 202 124.750 C 201.513 124.085 200.854 123.561 200.250 123 C 199.688 122.478 199.104 121.974 198.500 121.500 C 197.937 121.058 197.382 120.587 196.750 120.250 C 196.122 119.915 195.416 119.750 194.750 119.500 C 194.583 119.438 194.750 119.500 194.750 119.500 " transform="matrix(1, 0, 0, 1, -115, -102)"/>
    <path id="ID0.1270556254312396" fill="#000000" stroke="none" stroke-linecap="round" d="M 121.750 213 C 122.393 213.055 123.035 213.346 123.517 213.769 C 124.050 214.238 124.403 214.868 124.700 215.500 C 124.898 215.923 125.060 216.490 124.850 217 C 124.784 217.282 124.515 217.202 124 217.500 C 121.935 218.695 119.037 221.666 117.750 221 C 116.570 220.334 117.722 217.145 118 215.250 C 118.113 214.552 118.129 213.630 118.750 213.250 C 119.599 212.748 120.789 212.913 121.750 213 Z " transform="matrix(1, 0, 0, 1, -115, -102)"/>
  </g>
</svg>
